source/svgs/bowtie/uE011-table-to-file.svg

<svg xmlns="http://www.w3.org/2000/svg" viewBox="0 0 448 448" enable-background="new 0 0 448 448"><path d="M390.625 0h-134.625v224h32v-192h64v64h64v160h32v-198.625l-57.375-57.375zm-6.625 64v-25.375l25.375 25.375h-25.375zm-123.312 212.688l22.625 22.625 36.687-36.688v89.375h-96v-96h-224v192h224v-64h128v-121.375l36.688 36.688 22.625-22.625-75.313-75.313-75.312 75.313zm-132.688 43.312v32h-32v-32h32zm-96 0h32v32h-32v-32zm0 96v-32h32v32h-32zm64 0v-32h32v32h-32zm96 0h-32v-32h32v32zm0-64h-32v-32h32v32z"/></svg>

<svg xmlns="http://www.w3.org/2000/svg" viewBox="0 0 448 448"><path d="M390.625 0H256v224h32V32h64v64h64v160h32V57.375L390.625 0zM384 64V38.625L409.375 64H384zM260.688 276.688l22.625 22.625L320 262.625V352h-96v-96H0v192h224v-64h128V262.625l36.688 36.688 22.625-22.625L336 201.375l-75.312 75.313zM128 320v32H96v-32h32zm-96 0h32v32H32v-32zm0 96v-32h32v32H32zm64 0v-32h32v32H96zm96 0h-32v-32h32v32zm0-64h-32v-32h32v32z"/></svg>
